picto/car-hire-left-fr-framed.svg

<svg class="color-immutable" width="30" height="30" viewBox="0 0 30 30" fill="none" xmlns="http://www.w3.org/2000/svg"><path d="M30 30V0H0V30H30Z" fill="#2D327D"/><path d="M25.5 3C26.325 3 27 3.675 27 4.5V25.5C27 26.325 26.325 27 25.5 27H4.5C3.675 27 3 26.325 3 25.5V4.5C3 3.675 3.675 3 4.5 3H25.5ZM25.5 2.625H4.5C3.46613 2.625 2.625 3.46613 2.625 4.5V25.5C2.625 26.5339 3.46613 27.375 4.5 27.375H25.5C26.5339 27.375 27.375 26.5339 27.375 25.5V4.5C27.375 3.46613 26.5339 2.625 25.5 2.625Z" fill="white"/><path d="M6.34463 19.7141C6.14955 19.73 6 19.8924 6 20.0873V22.425C6 22.632 6.16822 22.8 6.37642 22.8H6.78885V22.3693C6.78885 21.1272 7.79565 20.1188 9.03787 20.1188C10.2799 20.1188 11.2877 21.1271 11.2877 22.3693V22.8H18.7499V22.3693C18.7499 21.1272 19.7578 20.1188 20.9997 20.1188C22.2407 20.1188 23.2495 21.1271 23.2495 22.3693V22.8H23.624C23.8312 22.8 24.0001 22.632 24.0001 22.425V19.781C24.0001 19.484 23.8802 19.197 23.6705 18.9863L21.4195 16.736C21.2087 16.5252 20.9225 16.4063 20.6242 16.4063H14.1404C13.8421 16.4063 13.5562 16.5252 13.3454 16.736L10.7312 19.3502L6.34463 19.7141ZM17.6267 19.0318V17.4945C17.6267 17.2874 17.7949 17.1185 18.0018 17.1185H20.5863C20.6858 17.1185 20.7814 17.1584 20.8519 17.2289L22.6457 19.0225C22.6865 19.0643 22.7108 19.1219 22.7108 19.1813C22.7108 19.3057 22.6103 19.4059 22.4858 19.4059H18.0019C17.7949 19.4059 17.6267 19.2389 17.6267 19.0318ZM12.2788 19.4059C12.1543 19.4059 12.053 19.3057 12.053 19.1813C12.053 19.1219 12.078 19.0643 12.1191 19.0225L13.9127 17.2289C13.9835 17.1584 14.079 17.1185 14.1785 17.1185H16.5398C16.747 17.1185 16.9151 17.2874 16.9151 17.4945C16.9151 17.4945 16.9151 17.4945 16.9151 17.4953L16.9122 19.0328C16.9122 19.2389 16.7451 19.4059 16.5379 19.4059H12.2788Z" fill="white"/><path fill-rule="evenodd" clip-rule="evenodd" d="M20.9954 23.2222C20.4779 23.2222 20.058 22.8024 20.058 22.2844C20.058 21.7662 20.4779 21.3466 20.9954 21.3466C21.5127 21.3466 21.9329 21.7663 21.9329 22.2844C21.9328 22.8024 21.5126 23.2222 20.9954 23.2222ZM20.9954 20.5778C20.0544 20.5778 19.2888 21.342 19.2888 22.2843C19.2888 23.2258 20.0544 23.9909 20.9954 23.9909C21.9374 23.9909 22.7021 23.2258 22.7021 22.2843C22.702 21.342 21.9374 20.5778 20.9954 20.5778Z" fill="white"/><path fill-rule="evenodd" clip-rule="evenodd" d="M9.03434 23.2222C8.51676 23.2222 8.09796 22.8024 8.09796 22.2844C8.09796 21.7662 8.51676 21.3466 9.03434 21.3466C9.55266 21.3466 9.97251 21.7663 9.97251 22.2844C9.97251 22.8024 9.55266 23.2222 9.03434 23.2222ZM9.03524 20.5778C8.09324 20.5778 7.32861 21.342 7.32861 22.2843C7.32861 23.2258 8.09324 23.9909 9.03524 23.9909C9.97731 23.9909 10.7419 23.2258 10.7419 22.2843C10.7419 21.342 9.97724 20.5778 9.03524 20.5778Z" fill="white"/><path d="M7.59038 7.83337V8.24865H6V6H6.49065V7.83337H7.59038Z" fill="white"/><path d="M8.62242 6.52298C8.86647 6.52298 9.0659 6.60398 9.22077 6.76598C9.37355 6.92595 9.44997 7.13926 9.44997 7.40581C9.44997 7.68166 9.36845 7.90155 9.2054 8.06565C9.05262 8.21843 8.85372 8.29485 8.60862 8.29485C8.34717 8.29485 8.13897 8.20973 7.98417 8.03955C7.8365 7.87755 7.7627 7.66733 7.7627 7.40896C7.7627 7.15463 7.83447 6.94801 7.97802 6.78908C8.13687 6.61163 8.35167 6.52298 8.62242 6.52298ZM8.59932 6.87053C8.48142 6.87053 8.3876 6.91823 8.31785 7.01355C8.24712 7.10993 8.21172 7.24171 8.21172 7.40888C8.21172 7.58221 8.2466 7.71495 8.31635 7.80728C8.38812 7.90058 8.48607 7.94723 8.61012 7.94723C8.726 7.94723 8.81772 7.9047 8.88545 7.81958C8.96232 7.72523 9.0008 7.58836 9.0008 7.40888C9.0008 7.24073 8.96697 7.11 8.89932 7.0167C8.82852 6.91928 8.72855 6.87053 8.59932 6.87053Z" fill="white"/><path d="M11.2987 7.60426C11.2772 7.77143 11.2213 7.91086 11.1311 8.02261C10.9855 8.20411 10.7799 8.29486 10.5143 8.29486C10.2415 8.29486 10.0293 8.20156 9.87753 8.01496C9.74935 7.85603 9.6853 7.65968 9.6853 7.42591C9.6853 7.13678 9.77095 6.90863 9.94218 6.74146C10.0919 6.59588 10.2852 6.52306 10.5221 6.52306C10.7405 6.52306 10.9179 6.57968 11.0543 6.69301C11.1906 6.80633 11.2686 6.96143 11.2881 7.15831H10.8497C10.8333 7.06913 10.7969 6.99991 10.7405 6.95063C10.6841 6.90143 10.6128 6.87683 10.5267 6.87683C10.4026 6.87683 10.3065 6.92371 10.2383 7.01753C10.1701 7.11136 10.136 7.24283 10.136 7.41203C10.136 7.56173 10.1631 7.68226 10.2175 7.77346C10.2842 7.88521 10.3842 7.94108 10.5174 7.94108C10.7143 7.94108 10.8297 7.82881 10.8635 7.60426H11.2987Z" fill="white"/><path d="M13.0875 8.24865H12.6322C12.6127 8.18303 12.603 8.12715 12.603 8.08103C12.4635 8.22353 12.2835 8.29485 12.0631 8.29485C11.8908 8.29485 11.7565 8.25488 11.6601 8.17485C11.5494 8.0826 11.494 7.9539 11.494 7.78883C11.494 7.5786 11.5889 7.43303 11.7786 7.35203C11.8554 7.31918 11.997 7.28895 12.2031 7.26128C12.3804 7.23773 12.4909 7.21485 12.5345 7.1928C12.5781 7.17075 12.5999 7.12643 12.5999 7.05975C12.5999 6.91313 12.5025 6.83978 12.3077 6.83978C12.2041 6.83978 12.1285 6.85823 12.0808 6.89513C12.0331 6.93203 12.0016 6.99615 11.9862 7.08735H11.5648C11.5782 6.90075 11.6484 6.75998 11.7756 6.66518C11.9027 6.5703 12.0837 6.5229 12.3185 6.5229C12.5779 6.5229 12.7697 6.5757 12.8937 6.6813C12.9512 6.7305 12.9894 6.7833 13.0083 6.8397C13.0273 6.8961 13.0368 6.98528 13.0368 7.1073C13.0368 7.13295 13.0353 7.24575 13.0322 7.4457C13.0302 7.64768 13.0291 7.76355 13.0291 7.79333C13.0291 7.91535 13.0327 8.00483 13.0399 8.06175C13.047 8.11875 13.0629 8.181 13.0875 8.24865ZM12.5968 7.43813C12.5394 7.47405 12.4348 7.50218 12.283 7.52273C12.1764 7.53915 12.0995 7.56015 12.0523 7.5858C11.9856 7.62173 11.9523 7.6827 11.9523 7.7688C11.9523 7.83855 11.9744 7.89285 12.0185 7.93185C12.0626 7.97085 12.1241 7.99028 12.2031 7.99028C12.3343 7.99028 12.4404 7.94415 12.5214 7.85183C12.5502 7.82003 12.5699 7.78695 12.5807 7.7526C12.5914 7.71825 12.5968 7.67288 12.5968 7.61648V7.43813Z" fill="white"/><path d="M14.2857 6.56602V6.88132H13.9519V7.6704C13.9519 7.76475 13.9606 7.82475 13.9781 7.85032C14.0038 7.88722 14.0611 7.90567 14.1504 7.90567C14.1853 7.90567 14.2303 7.90312 14.2858 7.89795V8.2548C14.1853 8.26605 14.093 8.27167 14.0089 8.27167C13.8818 8.27167 13.7849 8.25735 13.7182 8.22862C13.6147 8.1825 13.5501 8.09842 13.5244 7.9764C13.5132 7.92412 13.5075 7.8159 13.5075 7.65187V6.88132H13.2352V6.56602H13.5075V6.17227H13.952V6.56602H14.2857Z" fill="white"/><path d="M14.9886 6V6.40147H14.5425V6H14.9886ZM14.9886 6.57217V8.24873H14.5425V6.57217H14.9886Z" fill="white"/><path d="M16.1498 6.52298C16.3939 6.52298 16.5933 6.60398 16.7481 6.76598C16.9009 6.92595 16.9773 7.13926 16.9773 7.40581C16.9773 7.68166 16.8958 7.90155 16.7327 8.06565C16.58 8.21843 16.3811 8.29485 16.136 8.29485C15.8745 8.29485 15.6663 8.20973 15.5115 8.03955C15.3638 7.87755 15.29 7.66733 15.29 7.40896C15.29 7.15463 15.3618 6.94801 15.5054 6.78908C15.6643 6.61163 15.8792 6.52298 16.1498 6.52298ZM16.1267 6.87053C16.0088 6.87053 15.915 6.91823 15.8453 7.01355C15.7745 7.10993 15.7391 7.24171 15.7391 7.40888C15.7391 7.58221 15.774 7.71495 15.8438 7.80728C15.9155 7.90058 16.0135 7.94723 16.1375 7.94723C16.2534 7.94723 16.3451 7.9047 16.4129 7.81958C16.4897 7.72523 16.5282 7.58836 16.5282 7.40888C16.5282 7.24073 16.4944 7.11 16.4267 7.0167C16.3559 6.91928 16.256 6.87053 16.1267 6.87053Z" fill="white"/><path d="M17.6924 6.57367V6.80902C17.7447 6.73724 17.7935 6.68444 17.8385 6.65062C17.9493 6.56452 18.0826 6.52139 18.2384 6.52139C18.3758 6.52139 18.4922 6.55627 18.5876 6.62602C18.6635 6.68137 18.7165 6.75134 18.7468 6.83594C18.777 6.92054 18.7922 7.03972 18.7922 7.19354V8.24864H18.3476V7.28737C18.3476 7.17974 18.3384 7.10077 18.32 7.05052C18.3026 7.00642 18.2728 6.97154 18.2308 6.94589C18.1826 6.91822 18.1277 6.90434 18.0662 6.90434C17.9986 6.90434 17.937 6.92077 17.8817 6.95354C17.8263 6.98639 17.7853 7.03094 17.7586 7.08734C17.7289 7.15094 17.714 7.24987 17.714 7.38419V8.24857H17.2679V6.57367H17.6924Z" fill="white"/></svg>

<svg class="color-immutable" width="30" height="30" viewBox="0 0 30 30" fill="none" xmlns="http://www.w3.org/2000/svg"><g clip-path="url(#a)"><path d="M30 30V0H0v30h30Z" fill="#2D327D"/><path d="M25.5 3c.825 0 1.5.675 1.5 1.5v21c0 .825-.675 1.5-1.5 1.5h-21c-.825 0-1.5-.675-1.5-1.5v-21C3 3.675 3.675 3 4.5 3h21Zm0-.375h-21A1.877 1.877 0 0 0 2.625 4.5v21c0 1.034.841 1.875 1.875 1.875h21a1.877 1.877 0 0 0 1.875-1.875v-21A1.877 1.877 0 0 0 25.5 2.625Z" fill="#fff"/><path d="M6.345 19.714a.375.375 0 0 0-.345.373v2.338c0 .207.168.375.376.375h.413v-.43a2.25 2.25 0 1 1 4.499 0v.43h7.462v-.43A2.251 2.251 0 0 1 21 20.118a2.252 2.252 0 0 1 2.25 2.25v.431h.374a.376.376 0 0 0 .376-.375v-2.644c0-.297-.12-.584-.33-.795l-2.25-2.25c-.211-.21-.498-.33-.796-.33H14.14c-.298 0-.584.12-.795.33l-2.614 2.614-4.386.364Zm11.282-.682v-1.538c0-.207.168-.375.375-.375h2.584c.1 0 .195.04.266.11l1.794 1.794a.224.224 0 0 1-.16.383h-4.484a.374.374 0 0 1-.375-.374Zm-5.348.374a.225.225 0 0 1-.16-.383l1.794-1.794c.07-.07.166-.11.265-.11h2.362c.207 0 .375.168.375.375v.001l-.003 1.538a.373.373 0 0 1-.374.373h-4.26Z" fill="#fff"/><path fill-rule="evenodd" clip-rule="evenodd" d="M20.995 23.222a.938.938 0 1 1 .001-1.875.938.938 0 0 1 0 1.875Zm0-2.644a1.708 1.708 0 0 0 0 3.413 1.708 1.708 0 0 0 0-3.413ZM9.034 23.222a.937.937 0 1 1 .001-1.873.937.937 0 0 1 0 1.873Zm.001-2.644a1.707 1.707 0 1 0 .001 3.414 1.707 1.707 0 0 0 0-3.414Z" fill="#fff"/><path d="M7.59 7.833v.416H6V6h.49v1.833h1.1ZM8.622 6.523c.244 0 .444.081.599.243.153.16.229.373.229.64 0 .276-.082.496-.245.66a.807.807 0 0 1-.596.229c-.262 0-.47-.085-.625-.255-.147-.162-.221-.373-.221-.631 0-.254.071-.461.215-.62.159-.177.374-.266.644-.266Zm-.023.348a.331.331 0 0 0-.281.143.656.656 0 0 0-.106.395c0 .173.035.306.104.398a.35.35 0 0 0 .294.14.333.333 0 0 0 .275-.127c.077-.095.116-.232.116-.411 0-.168-.034-.299-.102-.392a.35.35 0 0 0-.3-.146ZM11.299 7.604a.817.817 0 0 1-.168.419c-.146.181-.351.272-.617.272-.272 0-.485-.093-.636-.28a.908.908 0 0 1-.193-.59c0-.288.086-.516.257-.684a.797.797 0 0 1 .58-.218c.219 0 .396.057.532.17a.663.663 0 0 1 .234.465h-.438a.35.35 0 0 0-.11-.207.314.314 0 0 0-.213-.074.336.336 0 0 0-.289.14c-.068.094-.102.226-.102.395a.7.7 0 0 0 .082.361.327.327 0 0 0 .3.168c.196 0 .312-.112.345-.337h.436ZM13.088 8.249h-.456a.605.605 0 0 1-.029-.168.723.723 0 0 1-.54.214c-.172 0-.306-.04-.403-.12a.475.475 0 0 1-.166-.386c0-.21.095-.356.285-.437.076-.033.218-.063.424-.09.177-.024.288-.047.332-.07.043-.021.065-.066.065-.132 0-.147-.098-.22-.292-.22-.104 0-.18.018-.227.055-.048.037-.08.101-.095.192h-.421a.545.545 0 0 1 .21-.422c.128-.095.309-.142.543-.142.26 0 .452.053.576.158.057.05.095.102.114.159a.91.91 0 0 1 .029.267l-.005.339-.003.347c0 .122.004.212.01.269.008.057.024.119.049.187Zm-.491-.81a.865.865 0 0 1-.314.084.758.758 0 0 0-.23.063c-.067.036-.1.097-.1.183 0 .07.021.124.066.163a.27.27 0 0 0 .184.058.403.403 0 0 0 .318-.138.268.268 0 0 0 .06-.1.47.47 0 0 0 .016-.136v-.178ZM14.286 6.566v.315h-.334v.79c0 .094.009.154.026.18.026.036.083.055.172.055.035 0 .08-.003.136-.008v.357c-.1.011-.193.017-.277.017a.764.764 0 0 1-.29-.043.332.332 0 0 1-.195-.253 1.939 1.939 0 0 1-.016-.324v-.77h-.273v-.316h.273v-.394h.444v.394h.334ZM14.989 6v.401h-.447V6h.447Zm0 .572V8.25h-.447V6.572h.447ZM16.15 6.523a.79.79 0 0 1 .598.243c.153.16.23.373.23.64 0 .276-.082.496-.245.66a.807.807 0 0 1-.597.229c-.261 0-.47-.085-.624-.255-.148-.162-.222-.373-.222-.631 0-.254.072-.461.215-.62.16-.177.374-.266.645-.266Zm-.023.348a.331.331 0 0 0-.282.143.655.655 0 0 0-.106.395c0 .173.035.306.105.398a.35.35 0 0 0 .293.14.333.333 0 0 0 .276-.127c.077-.095.115-.232.115-.411 0-.168-.034-.299-.101-.392a.349.349 0 0 0-.3-.146ZM17.692 6.574v.235a.632.632 0 0 1 .546-.288c.138 0 .254.035.35.105a.438.438 0 0 1 .159.21c.03.085.045.204.045.358v1.055h-.444v-.962a.743.743 0 0 0-.028-.236.211.211 0 0 0-.09-.105.355.355 0 0 0-.35.008.304.304 0 0 0-.121.133.74.74 0 0 0-.045.297v.865h-.446V6.574h.424Z" fill="#fff"/></g><defs><clipPath id="a"><path fill="#fff" d="M0 0h30v30H0z"/></clipPath></defs></svg>
